X: 1
T: the Lilting Banshee
T: the Miller of Glenmire
R: jig
S: Mary Bergin
N: Bars 1 and 5 also played |EAA EAc|
M: 6/8
L: 1/8
K: Ador
A \
| "Am"EAA EAA | "G"BAB G2A | Bee edB | dBA     GED \
| "Am"EAA EAA | "G"BAB G2A | Bee edB | dBA "Am"A2 :|
|: d \
| "Am"eaa age | "G"dBA G2A | Bee edB | def    ~g3 \
| "Am"eaa age | "G"dBA G2A | Bee edB | dBA "Am"A2 :|
